packages/calcite-ui-icons/icons/subheading-5-rtl-24.svg

<?xml version="1.0" encoding="UTF-8"?><svg id="icons" xmlns="http://www.w3.org/2000/svg" viewBox="0 0 24 24"><rect width="24" height="24" style="fill:none;"/><path d="M17,9H2v-2h15v2ZM22,13H2s0,1,0,1h20s0-1,0-1ZM22,17H2s0,1,0,1h20s0-1,0-1ZM22,21H2s0,1,0,1h20s0-1,0-1ZM22,3.00003H2s0,.99997,0,.99997h20s0-.99997,0-.99997ZM22,10v-1c0-.55127-.44824-1-1-1h-1s0-1,0-1h2v-1h-3v2c0,.55127.44824,1,1,1h1s0,1,0,1h-2v1h2c.55176,0,1-.44873,1-1Z"/></svg>

<svg xmlns="http://www.w3.org/2000/svg" viewBox="0 0 24 24"><path fill="none" d="M0 0h24v24H0z"/><path d="M17 9H2V7h15v2zm5 4H2v1h20v-1zm0 4H2v1h20v-1zm0 4H2v1h20v-1zm0-18H2v1h20V3zm0 7V9c0-.551-.448-1-1-1h-1V7h2V6h-3v2c0 .551.448 1 1 1h1v1h-2v1h2c.552 0 1-.449 1-1z"/></svg>
